assets/discount.svg

<?xml version="1.0" encoding="UTF-8" standalone="no"?>
<!-- Generator: Adobe Illustrator 19.0.0, SVG Export Plug-In . SVG Version: 6.00 Build 0)  -->

<svg
   xmlns:dc="http://purl.org/dc/elements/1.1/"
   xmlns:cc="http://creativecommons.org/ns#"
   xmlns:rdf="http://www.w3.org/1999/02/22-rdf-syntax-ns#"
   xmlns:svg="http://www.w3.org/2000/svg"
   xmlns="http://www.w3.org/2000/svg"
   xmlns:sodipodi="http://sodipodi.sourceforge.net/DTD/sodipodi-0.dtd"
   xmlns:inkscape="http://www.inkscape.org/namespaces/inkscape"
   version="1.1"
   id="Layer_1"
   x="0px"
   y="0px"
   viewBox="0 0 500.87112 512"
   xml:space="preserve"
   sodipodi:docname="discount.svg"
   width="500.87112"
   height="512"
   inkscape:version="0.92.2 (5c3e80d, 2017-08-06)"><metadata
     id="metadata49"><rdf:RDF><cc:Work
         rdf:about=""><dc:format>image/svg+xml</dc:format><dc:type
           rdf:resource="http://purl.org/dc/dcmitype/StillImage" /></cc:Work></rdf:RDF></metadata><defs
     id="defs47" /><sodipodi:namedview
     pagecolor="#ffffff"
     bordercolor="#666666"
     borderopacity="1"
     objecttolerance="10"
     gridtolerance="10"
     guidetolerance="10"
     inkscape:pageopacity="0"
     inkscape:pageshadow="2"
     inkscape:window-width="1600"
     inkscape:window-height="837"
     id="namedview45"
     showgrid="false"
     inkscape:zoom="0.4609375"
     inkscape:cx="250.43557"
     inkscape:cy="256"
     inkscape:window-x="-4"
     inkscape:window-y="-4"
     inkscape:window-maximized="1"
     inkscape:current-layer="Layer_1" /><g
     id="g862"
     transform="translate(-5.5644313)"><path
       id="path2"
       d="m 256,512 c -3.403,0 -6.804,-1.038 -9.707,-3.109 L 12.554,341.935 C 6.652,337.718 4.146,330.163 6.363,323.25 8.576,316.342 15.005,311.652 22.261,311.652 H 72.348 V 16.696 C 72.348,7.473 79.821,0 89.043,0 h 333.913 c 9.223,0 16.696,7.473 16.696,16.696 v 294.957 h 50.087 c 7.256,0 13.685,4.69 15.896,11.598 2.217,6.913 -0.288,14.467 -6.191,18.685 L 265.706,508.891 C 262.804,510.961 259.403,512 256,512 Z"
       style="fill:#6dc82a"
       inkscape:connector-curvature="0" /><path
       id="path4"
       d="M 489.739,311.652 H 439.652 V 16.696 C 439.652,7.473 432.179,0 422.956,0 H 256 v 512 0 c 3.403,0 6.804,-1.038 9.707,-3.109 L 499.446,341.934 c 5.902,-4.217 8.408,-11.772 6.191,-18.685 -2.213,-6.907 -8.642,-11.597 -15.898,-11.597 z"
       style="fill:#61b325"
       inkscape:connector-curvature="0" /><path
       id="path6"
       d="m 189.217,155.826 c -27.619,0 -50.087,-22.468 -50.087,-50.087 0,-27.619 22.468,-50.087 50.087,-50.087 27.619,0 50.087,22.468 50.087,50.087 0,27.619 -22.468,50.087 -50.087,50.087 z m 0,-66.783 c -9.206,0 -16.696,7.49 -16.696,16.696 0,9.206 7.49,16.696 16.696,16.696 9.206,0 16.696,-7.49 16.696,-16.696 0,-9.206 -7.49,-16.696 -16.696,-16.696 z"
       style="fill:#ffffff"
       inkscape:connector-curvature="0" /><path
       id="path8"
       d="m 322.783,289.391 c -27.619,0 -50.087,-22.468 -50.087,-50.087 0,-27.619 22.468,-50.087 50.087,-50.087 27.619,0 50.087,22.468 50.087,50.087 0,27.619 -22.468,50.087 -50.087,50.087 z m 0,-66.782 c -9.206,0 -16.696,7.49 -16.696,16.696 0,9.206 7.49,16.695 16.696,16.695 9.206,0 16.696,-7.49 16.696,-16.696 0,-9.206 -7.49,-16.695 -16.696,-16.695 z"
       style="fill:#d1e7f8"
       inkscape:connector-curvature="0" /><path
       id="path10"
       d="m 185.163,260.059 c -4.272,0 -8.544,-1.631 -11.804,-4.892 -6.521,-6.516 -6.521,-17.092 0,-23.609 L 315.027,89.891 c 6.521,-6.521 17.087,-6.521 23.609,0 6.521,6.516 6.521,17.092 0,23.609 L 196.967,255.167 c -3.261,3.263 -7.533,4.892 -11.804,4.892 z"
       style="fill:#ffffff"
       inkscape:connector-curvature="0" /><path
       id="path12"
       d="M 315.028,89.892 256,148.921 v 47.218 L 338.637,113.5 c 6.521,-6.516 6.521,-17.092 0,-23.609 -6.522,-6.522 -17.087,-6.522 -23.609,10e-4 z"
       style="fill:#d1e7f8"
       inkscape:connector-curvature="0" /></g><g
     id="g14"
     transform="translate(-5.5644313)" /><g
     id="g16"
     transform="translate(-5.5644313)" /><g
     id="g18"
     transform="translate(-5.5644313)" /><g
     id="g20"
     transform="translate(-5.5644313)" /><g
     id="g22"
     transform="translate(-5.5644313)" /><g
     id="g24"
     transform="translate(-5.5644313)" /><g
     id="g26"
     transform="translate(-5.5644313)" /><g
     id="g28"
     transform="translate(-5.5644313)" /><g
     id="g30"
     transform="translate(-5.5644313)" /><g
     id="g32"
     transform="translate(-5.5644313)" /><g
     id="g34"
     transform="translate(-5.5644313)" /><g
     id="g36"
     transform="translate(-5.5644313)" /><g
     id="g38"
     transform="translate(-5.5644313)" /><g
     id="g40"
     transform="translate(-5.5644313)" /><g
     id="g42"
     transform="translate(-5.5644313)" /></svg>

<?xml version="1.0" encoding="iso-8859-1"?>
<!-- Generator: Adobe Illustrator 19.0.0, SVG Export Plug-In . SVG Version: 6.00 Build 0)  -->
<svg version="1.1" id="Layer_1" xmlns="http://www.w3.org/2000/svg" xmlns:xlink="http://www.w3.org/1999/xlink" x="0px" y="0px"
	 viewBox="0 0 512 512" style="enable-background:new 0 0 512 512;" xml:space="preserve">
<path style="fill:#6DC82A;" d="M256,512c-3.403,0-6.804-1.038-9.707-3.109L12.554,341.935c-5.902-4.217-8.408-11.772-6.191-18.685
	c2.213-6.908,8.642-11.598,15.898-11.598h50.087V16.696C72.348,7.473,79.821,0,89.043,0h333.913c9.223,0,16.696,7.473,16.696,16.696
	v294.957h50.087c7.256,0,13.685,4.69,15.896,11.598c2.217,6.913-0.288,14.467-6.191,18.685L265.706,508.891
	C262.804,510.961,259.403,512,256,512z"/>
<path style="fill:#61B325;" d="M489.739,311.652h-50.087V16.696C439.652,7.473,432.179,0,422.956,0H256v512l0,0
	c3.403,0,6.804-1.038,9.707-3.109l233.739-166.957c5.902-4.217,8.408-11.772,6.191-18.685
	C503.424,316.342,496.995,311.652,489.739,311.652z"/>
<path style="fill:#FFFFFF;" d="M189.217,155.826c-27.619,0-50.087-22.468-50.087-50.087s22.468-50.087,50.087-50.087
	s50.087,22.468,50.087,50.087S216.836,155.826,189.217,155.826z M189.217,89.043c-9.206,0-16.696,7.49-16.696,16.696
	s7.49,16.696,16.696,16.696s16.696-7.49,16.696-16.696S198.423,89.043,189.217,89.043z"/>
<path style="fill:#D1E7F8;" d="M322.783,289.391c-27.619,0-50.087-22.468-50.087-50.087s22.468-50.087,50.087-50.087
	s50.087,22.468,50.087,50.087S350.402,289.391,322.783,289.391z M322.783,222.609c-9.206,0-16.696,7.49-16.696,16.696
	S313.577,256,322.783,256c9.206,0,16.696-7.49,16.696-16.696S331.989,222.609,322.783,222.609z"/>
<path style="fill:#FFFFFF;" d="M185.163,260.059c-4.272,0-8.544-1.631-11.804-4.892c-6.521-6.516-6.521-17.092,0-23.609
	L315.027,89.891c6.521-6.521,17.087-6.521,23.609,0c6.521,6.516,6.521,17.092,0,23.609L196.967,255.167
	C193.706,258.43,189.434,260.059,185.163,260.059z"/>
<path style="fill:#D1E7F8;" d="M315.028,89.892L256,148.921v47.218l82.637-82.639c6.521-6.516,6.521-17.092,0-23.609
	C332.115,83.369,321.55,83.369,315.028,89.892z"/>
<g>
</g>
<g>
</g>
<g>
</g>
<g>
</g>
<g>
</g>
<g>
</g>
<g>
</g>
<g>
</g>
<g>
</g>
<g>
</g>
<g>
</g>
<g>
</g>
<g>
</g>
<g>
</g>
<g>
</g>
</svg>
